**kern	**text
*clefF4	*
*k[f#c#g#d#a#]	*
*M4/4	*
*MM140	*
=1	=1
1r	.
=2	=2
1r	.
=3	=3
1r	.
=4	=4
1r	.
=5	=5
1r	.
=6	=6
1r	.
=7	=7
1r	.
=8	=8
2r	.
4r	.
6G#	-dhuS
12G#	u kS
=9	=9
8BL	kl9
8B	9k-
8G#	-staS
8G#J	ap-
16F#LL	-tiS
16F#	i kS
96AnLL	kxS
[96G#JJ	_nngS
24G#_	.
16G#J]	.
8G#'	nn-
8G#J	-f3S
=10	=10
16B	3e
64r	.
32.BKKL	e v
8G#J	v3S
16G#	3u
64r	.
32.F#KKL	x gS
[8G#J	gOS
24G#LL]	.
24G#JJ	O-S
24r	.
8r	.
8r	.
16.G#LL	-h8S
32G#JJk	8 lS
=11	=11
16B	l9S
64r	.
32.BKLL	9ng-
16G#JJ	-h@S
64r	.
32.G#	.
16G#	vaS
64r	.
32.G#KLL	a bS
16.G#	biS
32F#JJk	i nS
8.F#L	nuS
16F#'Jk	up-
4r	.
=12	=12
16B	-'IS
64r	.
32.BKKL	a d
[8c#	dO
96c#KLL]	.
48.A#	On-
48A#JJJ	nt-
16r	.
[8A#	-nOS
4A#]	.
8.G#L	OI
16G#Jk	I k
=13	=13
*^	*
8r	6B	.
16r	.	.
.	12B'	&n-
64r	.	.
32.B	.	nt-
4r	[16.G#LL	.
.	64G#LL]	.
.	64G#JJ	e dd
.	16G#	ddx
.	32.F#L	x gS
.	[64F#JJJk	gri
2r	8.F#L]	.
.	16F#Jk	ip-
.	[16.F#LL	-bxS
.	64F#LL]	.
.	64F#JJ	x ddS
.	24G#	ddxS
.	[48G#K	x kS
.	16G#JJ]	.
*v	*v	*
=14	=14
32.BLLL	k&S
[64BK	in-
32B]	.
32G#JJ	n l
[8G#J	le
16G#LL]	.
16F#J	et-S
[8F#J	-gOS
16.F#LL_	.
64F#LL]	.
[64F#J	O-S
32F#JJJ]	.
32r	.
16r	.
8r	.
*clefG2	*
16.d#LL	-dhA
32d#JJk	Ar w
=15	=15
*^	*
16d#	8r	wu
64r	.	.
32.d#LLL	.	u z
96d#L	16r	zx
[96d#JJ	.	_nn
24d#_	.	.
16d#JJ]	32r	.
.	32dn	n n
16d#X	4r	ne
64r	.	.
32.d#KLL	.	e n
24d#J	.	nE
12d#J	.	E th
8.f#	2r	th1S
64r	.	.
32.f#	.	1ng t
16d#	.	tx
64r	.	.
32.d#KLL	.	o h
16d#	.	h0
32.d#L	.	0l-
64d#JJJk	.	l dd
*v	*v	*
=16	=16
16c#	dda
64r	.
32.c#KKL	9n
*clefF4	*
[8BJ	toS
16BLL]	.
16A#J	o dhS
[8BJ	dhOS
8BL]	.
8B'J	O-
4r	.
*clefG2	*
=17	=17
8.G#L	-wIS
16G#Jk	I kS
16.g#LL	k&
32g#JK	& n
[8bJ	nIP
16bLL]	.
16a#JJ	I s
4a#	sEP
8a#'	E-
=18	=18
8.G#L	-wIS
16G#Jk	I kS
16.g#LL	k&
32g#JK	& n
[8dd#J	naF
16dd#LL]	.
16cc#J	I sF
[8cc#J	sEF
16.cc#LL_	.
64cc#LL]	.
[64cc#J	E-F
32cc#JJJ]	.
32r	.
16r	.
=19	=19
8.A#L	-9l
16A#Jk	9l dh
16f#LL	dhu
16f#J	u k
[8bJ	kaP
16b]	.
64r	.
32.a#	u ll
[4a#	ll 3
32a#KLL]	.
16.a#JJ	3z-P
=20	=20
6a#	-dh@P
12a#	.
6a#	-yoP
12g#	o sP
4b	sEF
8b'	E-F
12r	.
24A#'	-p
=21	=21
8.G#L	plE
16G#Jk	Ez
16g#	k&
64r	.
32.g#KKL	& n
[8bJ	nIP
16b]	.
64r	.
32.b	I bP
4a#	bEP
24a#	E-P
24r	.
24A#'	-p
=22	=22
8.G#L	plE
16G#Jk	Ez
16g#	k&
64r	.
32.g#KKL	& n
[8dd#J	nIF
16dd#]	.
64r	.
32.dd#	I bF
4cc#	bEF
8cc#'	E-F
=23	=23
8.A#	-kaS
64r	.
32.A#	a l
16f#LL	l3
16f#J	3 f
[8bJ	fuP
16b]	.
64r	.
32.b	u lP
[4a#	leP
48a#LLL]	.
48a#JJ	e nP
12a#J	n f
=24	=24
[4.b	frE
16bLL]	.
16bJJ	E-P
4r	.
16g#	-wu
64r	.
32.g#KLL	ut-
16f#JJ	-dhu
64r	.
32.b	u h
=25	=25
8g#L	heP
24g#K	el-
12g#J	lz-
8g#L	gOP
24f#K	O1
12f#J	1ng-
[8g#L	-uP
32g#LL]	.
[32g#	u nP
64g#K]	.
32.g#JJ	n k
[8a#	keP
32a#LL]	.
32a#J	e nP
16a#JJ	n s
=26	=26
16bLL	saP
32bL	a mP
32a#J	m w
16a#	wuP
64a#KL	u nP
32.a#JJJ	n t
16.g#LL	teP
32g#K	el m
16f#	mE
32.d#L	E p
[64d#JJJk	pli
8.d#L]	.
[16d#Jk	Ez-
32d#]	.
32r	.
16r	.
8r	.
=27	=27
8g#L	-wa
32f#LL	I m
32f#	m m
32.f#	m s
[64f#JJJk	swi
16f#LL]	.
16f#	i ch
64d#KL	chx
32.d#J	_nng
16d#JJ	ng f
16d#LL	f@
16d#	.
16.c#	st3
32c#JJk	3 dh
16c#LL	dh&
32c#L	&n-
32c#J	n dh
*clefF4	*
24BJ	dhu
12BJ	u ch
=28	=28
16.c#LL	ch&
32BK	& n
16B	nx
64BKL	xl-
32.BJJJ	l z
*clefG2	*
16c#LL	z9
16c#	9n
16BJJ	tE
64r	.
32.B	E v
[8d#L	vE
32d#KL]	.
16.d#J	E '
8f#J	'@
64r	.
32.f#KLL	a mP
16f#JJ	m b
=29	=29
*^	*
6g#	4f#'	_l@P
12g#	.	.
16.g#LL	4r	-dheP
32g#K	.	e nP
16f#JJ	.	nx
64r	.	.
32.f#	.	xm w
8.g#L	2r	wIP
16g#Jk	.	It-P
6a#	.	-nOP
12a#	.	O sP
*v	*v	*
=30	=30
24bLL	saP
24b	a mP
24b	m th
16.a#	thiP
32a#JJk	i nP
16g#	niP
64r	.
32.g#KLL	i zP
16f#JJ	zxP
64r	.
32.d#	xn r
6d#	F4ra
12d#	It-
4f#	-mI
=31	=31
16.g#LL	Ie
32g#K	e nP
16f#JJ	nx
64r	.
32.f#	x m
16f#	mE
64r	.
32.f#LLL	E z
96d#K	zi
[48d#	_nn
32d#JJJ]	.
32r	.
32d#	n v
16.d#LL	vi
32d#K	i z
16.c#	zx
32c#JJk	x b
16c#LL	bx
16c#	x ll
*clefF4	*
16BJJ	ll a
64r	.
32.B	I d
=32	=32
16B	-nn
64r	.
32.BKLL	n n
16c#	nO
16c#JJ	O h
[16.BLL	h8
64BLL]	.
64BJJ	8 dd
*clefG2	*
24c#	ddx
[48c#K	x f
16c#JJ]	.
[8d#L	fa
32d#KL]	.
16.d#'JJ	It-
8r	.
40g#LLL	-dhu
[40g#J	u t
20g#_	.
80g#LL]	.
80ddnJJJJ	trP
=33	=33
24dd#LL	_reP
24dd#	e mP
24dd#J	m b
[8cc#J	bxP
16cc#LL]	.
16bJ	xl-
[8bJ	l1
16bLL]	.
16g#JJ	1ng f
4g#	fE
16g#LL	Er i
16g#JJ	iz-
=34	=34
16dd#LL	-m0P
32dd#L	0r-F
32cc#J	r dh
16.cc#	dh&
32cc#JJk	& n
16cc#LL	na
16cc#J	a k
[8bJ	k&
16bLL]	.
16g#J	&n
[8g#J	tA
16.g#LL]	.
32g#JJk	Ak-
8r	.
=35	=35
16.g#LL	-we
32g#K	e n
16.a#	na
32a#JJk	a mP
24bKL	muP
12b	u pP
16cc#Jk	pxF
64r	.
32.cc#	x gF
[8dd#L	geF
32dd#LL]	.
32dd#J	en-F
16dd#JJ	ns-
8dd#'L	st-
8a#J	-dhEP
=36	=36
16bLL	Ee
16bJ	e kP
8bJ	kOP
24bLL	Oi
24b	i nP
24b	n dh
16bJJ	dhuP
64r	.
32.a#	u mP
[4a#	mEP
32a#KLL]	.
16.a#JJ	3-P
8r	.
=37	=37
6gg#	-eF
12gg#	e kF
4cc#	kOF
8bb'L	O
8bb'	O
8bb'	O
8bb'J	O
=38	=38
8ccc#'L	O
8ff#'J	O
4cc#'	O
8gg#'L	O
8gg#'J	O
16gg#LL	O
16bbJ	O
8gg#'J	O
=39	=39
8.dd#'L	O
[16dd#Jk	O
16dd#]	.
16r	.
8dd#	O
16r	.
8.dd#'	O
8ff#'L	O
8ff#'J	O
=40	=40
8gg#'L	O
8bb'	O
8gg#'	O
8g#'J	O
8ddd#'L	O
8dd#'	O
8dd#'	O
8gg#'J	O
=41	=41
6r	.
[12dd#	asxasdc
2.dd#_	.
=42	=42
2dd#]	.
2r	.
=43	=43
1r	.
=44	=44
1r	.
=45	=45
1r	.
=46	=46
1r	.
=47	=47
1r	.
=48	=48
1r	.
=49	=49
1r	.
=50	=50
1r	.
=51	=51
1r	.
=52	=52
1r	.
=53	=53
1r	.
=54	=54
1r	.
=55	=55
1r	.
=56	=56
1r	.
=57	=57
1r	.
=58	=58
1r	.
=59	=59
1r	.
=60	=60
1r	.
=61	=61
1r	.
=62	=62
1r	.
=63	=63
1r	.
=64	=64
1r	.
=65	=65
1r	.
=66	=66
1r	.
=67	=67
1r	.
=68	=68
1r	.
=69	=69
1r	.
=70	=70
1r	.
=71	=71
1r	.
=72	=72
1r	.
=73	=73
1r	.
=74	=74
1r	.
=75	=75
1r	.
=76	=76
1r	.
=77	=77
1r	.
=78	=78
1r	.
=79	=79
1r	.
=80	=80
2r	.
4r	.
*clefF4	*
[8G#L	-IS
32G#LL]	.
[32G#	I mS
64G#K]	.
32.G#JJJ	m g
*clefG2	*
=81	=81
16.d#LL	gu
32d#K	u n
16c#JJ	nx
64r	.
32.c#	x b
16B	b3
64r	.
*clefF4	*
32.BKLL	3n m
16G#	mI
16c#JJ	a h
6B	h8
12B	8s-
16.G#LL	-d8
32G#K	8 n
16G#JJ	ni
64r	.
32.G#	in
=82	=82
8G#L	tx
16.A#L	o&
32A#JJk	& n
14BLL	nu
28BK	u g
[14c#	glE
*clefG2	*
14ryy	.
.	E b
8d#L	bl@
8d#'	ek-S
*clefF4	*
[8G#	-IS
32G#LL]	.
[32G#	I mS
64G#K]	.
32.G#JJJ	m g
*clefG2	*
=83	=83
16.d#LL	gu
32d#K	u n
16c#JJ	nx
64r	.
32.c#	x r
16B	ru
64r	.
*clefF4	*
32.BKLL	u n
16G#JJ	nx
64r	.
32.G#	x w
8.B	wA
64r	.
32.G#	F3A n
4G#	n8
=84	=84
16G#LL	8&
32G#L	&n-
32G#J	n n
16.A#	ne
32A#JJk	e v
16B	v3
64r	.
32.BKLL	3 l
*clefG2	*
16c#	l6
16c#JJ	6k-
8d#	-b@
64r	.
32.d#	.
16r	.
[8G#L	-IS
32G#LL]	.
*clefF4	*
[32G#	I mS
64G#K]	.
32.G#JJJ	m g
=85	=85
16.d#LL	gu
32d#K	u n
16c#JJ	nx
64r	.
32.c#	x b
16B	b3
64r	.
32.BKLL	3n m
16G#	mI
16c#JJ	a h
6B	h8
12B	8s-
16.G#LL	-d8
32G#K	8 n
16G#JJ	ni
64r	.
32.G#	in
=86	=86
8G#L	tx
16.A#L	o&
32A#JJk	& n
14BLL	nu
28BK	u g
[14c#	glE
*clefG2	*
14ryy	.
.	E b
8d#L	bl@
8d#'	ek-S
*clefF4	*
[8G#	-IS
32G#LL]	.
[32G#	I mS
64G#K]	.
32.G#JJJ	m g
*clefG2	*
=87	=87
16.d#LL	gu
32d#K	u n
16c#JJ	nx
64r	.
32.c#	x r
16B	ru
64r	.
*clefF4	*
32.BKLL	u n
16G#JJ	nx
64r	.
32.G#	x w
8.B	wA
64r	.
32.G#	F3A n
4G#	n8
=88	=88
16G#LL	8&
32G#L	&n-
32G#J	n n
16.A#	ne
32A#JJk	e v
16B	v3
64r	.
32.BKLL	3 l
*clefG2	*
16c#	l6
16c#JJ	6k-
8d#	-b@
64r	.
32.d#	.
16r	.
[8G#L	-IS
32G#LL]	.
*clefF4	*
[32G#	I mS
64G#K]	.
32.G#JJJ	m g
=89	=89
16.d#LL	gu
32d#K	u n
16c#JJ	nx
64r	.
32.c#	x b
16B	b3
64r	.
32.BKLL	3n m
16G#	mI
16c#JJ	a h
6B	h8
12B	8s-
16.G#LL	-d8
32G#K	8 n
16G#JJ	ni
64r	.
32.G#	in
=90	=90
8G#L	tx
16.A#L	o&
32A#JJk	& n
14BLL	nu
28BK	u g
[14c#	glE
*clefG2	*
14ryy	.
.	E b
8d#L	bl@
8d#'	ek-S
*clefF4	*
[8G#	-IS
32G#LL]	.
[32G#	I mS
64G#K]	.
32.G#JJJ	m g
*clefG2	*
=91	=91
16.d#LL	gu
32d#K	u n
16c#JJ	nx
64r	.
32.c#	x r
16B	ru
64r	.
*clefF4	*
32.BKLL	u n
16G#JJ	nx
64r	.
32.G#	x w
8.B	wA
64r	.
32.G#	F3A n
4G#	n8
=92	=92
16G#LL	8&
32G#L	&n-
32G#J	n n
16.A#	ne
32A#JJk	e v
16B	v3
64r	.
32.BKLL	3 l
*clefG2	*
16c#	l6
16c#JJ	6k-
8d#	-b@
64r	.
32.d#	.
16r	.
[8G#L	-IS
32G#LL]	.
*clefF4	*
[32G#	I mS
64G#K]	.
32.G#JJJ	m g
=93	=93
16.d#LL	gu
32d#K	u n
16c#JJ	nx
64r	.
32.c#	x b
16B	b3
64r	.
32.BKLL	3n m
16G#	mI
16c#JJ	a h
6B	h8
12B	8s-
16.G#LL	-d8
32G#K	8 n
16G#JJ	ni
64r	.
32.G#	in
=94	=94
8G#L	tx
16.A#L	o&
32A#JJk	& n
14BLL	nu
28BK	u g
[14c#	glE
*clefG2	*
14ryy	.
.	E b
8d#L	bl@
8d#'	ek-S
*clefF4	*
[8G#	-IS
32G#LL]	.
[32G#	I mS
64G#K]	.
32.G#JJJ	m g
*clefG2	*
=95	=95
16.d#LL	gu
32d#K	u n
16c#JJ	nx
64r	.
32.c#	x r
16B	ru
64r	.
*clefF4	*
32.BKLL	u n
16G#JJ	nx
64r	.
32.G#	x w
8.B	wA
64r	.
32.G#	F3A n
4G#	n8
=96	=96
16G#LL	8&
32G#L	&n-
32G#J	n n
16.A#	ne
32A#JJk	e v
16B	v3
64r	.
32.BKLL	3 l
*clefG2	*
16c#	l6
16c#JJ	6k-
8d#	-b@
64r	.
32.d#	.
16r	.
[8G#L	-IS
32G#LL]	.
*clefF4	*
[32G#	I mS
64G#K]	.
32.G#JJJ	m g
=97	=97
16.d#LL	gu
32d#K	u n
16c#JJ	nx
64r	.
32.c#	x b
16B	b3
64r	.
32.BKLL	3n m
16G#	mI
16c#JJ	a h
6B	h8
12BL	8s-
8.G#J	-d8
64r	.
32.G#	8 n
=98	=98
16G#LL	n&
32G#L	&n-
32G#J	n n
16.A#	ne
32A#JJk	e v
16B	v3
64r	.
*clefG2	*
32.BKLL	3 l
16c#	l6
16c#JJ	6k-
8d#	-b@
64r	.
32.d#	.
16r	.
4r	.
*clefF4	*
=99	=99
16G#LL	-&
32G#L	&n-
32G#J	n n
16.A#	ne
32A#JJk	e v
16B	v3
64r	.
*clefG2	*
32.BKLL	3 l
16c#	l6
16c#JJ	6k-
8d#	-b@
64r	.
32.d#	.
16r	.
4r	.
*clefF4	*
=100	=100
16G#LL	-&
32G#L	&n-
32G#J	n n
16.A#	ne
32A#JJk	e v
16B	v3
64r	.
32.BKLL	3 l
*clefG2	*
16c#	l6
16c#JJ	6k-
8d#	-b@
64r	.
32.d#	.
16r	.
16g#	-wu
64r	.
32.g#KLL	ut-
16f#JJ	-dhu
64r	.
32.b	u h
=101	=101
8g#L	heP
24g#K	el-
12g#J	lz-
8g#L	gOP
24f#K	O1
12f#J	1ng-
[8g#L	-uP
32g#LL]	.
[32g#	u nP
64g#K]	.
32.g#JJ	n k
[8a#	keP
32a#LL]	.
32a#J	e nP
16a#JJ	n s
=102	=102
16bLL	saP
32bL	a mP
32a#J	m w
16a#	wuP
64a#KL	u nP
32.a#JJJ	n t
16.g#LL	teP
32g#K	el m
16f#	mE
32.d#L	E p
[64d#JJJk	pli
8.d#L]	.
[16d#Jk	Ez-
32d#]	.
32r	.
16r	.
8r	.
=103	=103
8g#L	-wa
32f#LL	I m
32f#	m m
32.f#	m s
[64f#JJJk	swi
16f#LL]	.
16f#	i ch
64d#KL	chx
32.d#J	_nng
16d#JJ	ng f
16d#LL	f@
16d#	.
16.c#	st3
32c#JJk	3 dh
16c#LL	dh&
32c#L	&n-
32c#J	n dh
*clefF4	*
24BJ	dhu
12BJ	u ch
=104	=104
16.c#LL	ch&
32BK	& n
16B	nx
64BKL	xl-
32.BJJJ	l z
*clefG2	*
16c#LL	z9
16c#	9n
16BJJ	tE
64r	.
32.B	E v
[8d#L	vE
32d#KL]	.
16.d#J	E '
8f#J	'@
64r	.
32.f#KLL	a mP
16f#JJ	m b
=105	=105
*^	*
6g#	4f#'	_l@P
12g#	.	.
16.g#LL	4r	-dheP
32g#K	.	e nP
16f#JJ	.	nx
64r	.	.
32.f#	.	xm w
8.g#L	2r	wIP
16g#Jk	.	It-P
6a#	.	-nOP
12a#	.	O sP
*v	*v	*
=106	=106
24bLL	saP
24b	a mP
24b	m th
16.a#	thiP
32a#JJk	i nP
16g#	niP
64r	.
32.g#KLL	i zP
16f#JJ	zxP
64r	.
32.d#	xn r
6d#	F4ra
12d#	It-
4f#	-mI
=107	=107
16.g#LL	Ie
32g#K	e nP
16f#JJ	nx
64r	.
32.f#	x m
16f#	mE
64r	.
32.f#LLL	E z
96d#K	zi
[48d#	_nn
32d#JJJ]	.
32r	.
32d#	n v
16.d#LL	vi
32d#K	i z
16.c#	zx
32c#JJk	x b
16c#LL	bx
16c#	x ll
*clefF4	*
16BJJ	ll a
64r	.
32.B	I d
=108	=108
16B	-nn
64r	.
32.BKLL	n n
16c#	nO
16c#JJ	O h
[16.BLL	h8
64BLL]	.
64BJJ	8 dd
*clefG2	*
24c#	ddx
[48c#K	x f
16c#JJ]	.
[8d#L	fa
32d#KL]	.
16.d#'JJ	It-
16g#	-wu
64r	.
32.g#KLL	ut-
16f#JJ	-dhu
64r	.
32.b	u h
=109	=109
8g#L	heP
24g#K	el-
12g#J	lz-
8g#L	gOP
24f#K	O1
12f#J	1ng-
[8g#L	-uP
32g#LL]	.
[32g#	u nP
64g#K]	.
32.g#JJ	n k
[8a#	keP
32a#LL]	.
32a#J	e nP
16a#JJ	n s
=110	=110
16bLL	saP
32bL	a mP
32a#J	m w
16a#	wuP
64a#KL	u nP
32.a#JJJ	n t
16.g#LL	teP
32g#K	el m
16f#	mE
32.d#L	E p
[64d#JJJk	pli
8.d#L]	.
[16d#Jk	Ez-
32d#]	.
32r	.
16r	.
8r	.
=111	=111
8g#L	-wa
32f#LL	I m
32f#	m m
32.f#	m s
[64f#JJJk	swi
16f#LL]	.
16f#	i ch
64d#KL	chx
32.d#J	_nng
16d#JJ	ng f
16d#LL	f@
16d#	.
16.c#	st3
32c#JJk	3 dh
16c#LL	dh&
32c#L	&n-
32c#J	n dh
*clefF4	*
24BJ	dhu
12BJ	u ch
=112	=112
16.c#LL	ch&
32BK	& n
16B	nx
64BKL	xl-
32.BJJJ	l z
*clefG2	*
16c#LL	z9
16c#	9n
16BJJ	tE
64r	.
32.B	E v
[8d#L	vE
32d#KL]	.
16.d#J	E '
8f#J	'@
64r	.
32.f#KLL	a mP
16f#JJ	m b
=113	=113
*^	*
6g#	4f#'	_l@P
12g#	.	.
16.g#LL	4r	-dheP
32g#K	.	e nP
16f#JJ	.	nx
64r	.	.
32.f#	.	xm w
8.g#L	2r	wIP
16g#Jk	.	It-P
6a#	.	-nOP
12a#	.	O sP
*v	*v	*
=114	=114
24bLL	saP
24b	a mP
24b	m th
16.a#	thiP
32a#JJk	i nP
16g#	niP
64r	.
32.g#KLL	i zP
16f#JJ	zxP
64r	.
32.d#	xn r
6d#	F4ra
12d#	It-
4f#	-mI
=115	=115
16.g#LL	Ie
32g#K	e nP
16f#JJ	nx
64r	.
32.f#	x m
16f#	mE
64r	.
32.f#LLL	E z
96d#K	zi
[48d#	_nn
32d#JJJ]	.
32r	.
32d#	n v
16.d#LL	vi
32d#K	i z
16.c#	zx
32c#JJk	x b
16c#LL	bx
16c#	x ll
*clefF4	*
16BJJ	ll a
64r	.
32.B	I d
=116	=116
16B	-nn
64r	.
32.BKLL	n n
16c#	nO
16c#JJ	O h
[16.BLL	h8
64BLL]	.
64BJJ	8 dd
*clefG2	*
24c#	ddx
[48c#K	x f
16c#JJ]	.
[8d#L	fa
32d#KL]	.
16.d#'JJ	It-
8r	.
40g#LLL	-dhu
[40g#J	u t
20g#_	.
80g#LL]	.
80ddnJJJJ	trP
=117	=117
24dd#LL	_reP
24dd#	e mP
24dd#J	m b
[8cc#J	bxP
16cc#LL]	.
16bJ	xl-
[8bJ	l1
16bLL]	.
16g#JJ	1ng f
4g#	fE
16g#LL	Er i
16g#JJ	iz-
=118	=118
16dd#LL	-m0P
32dd#L	0r-F
32cc#J	r dh
16.cc#	dh&
32cc#JJk	& n
16cc#LL	na
16cc#J	a k
[8bJ	k&
16bLL]	.
16g#J	&n
[8g#J	tA
16.g#LL]	.
32g#JJk	Ak-
8r	.
=119	=119
16.g#LL	-we
32g#K	e n
16.a#	na
32a#JJk	a mP
24bKL	muP
12b	u pP
16cc#Jk	pxF
64r	.
32.cc#	x gF
[8dd#L	geF
32dd#LL]	.
32dd#J	en-F
16dd#JJ	ns-
8dd#'L	st-
8a#J	-dhEP
=120	=120
16bLL	Ee
16bJ	e kP
8bJ	kOP
24bLL	Oi
24b	i nP
24b	n dh
16bJJ	dhuP
64r	.
32.a#	u mP
4a#	mEP
8a#L	3-P
40g#LL	-dhu
[40g#J	u t
20g#_	.
80g#LL]	.
80ddnJJJJ	trP
=121	=121
24dd#LL	_reP
24dd#	e mP
24dd#J	m b
[8cc#J	bxP
16cc#LL]	.
16bJ	xl-
[8bJ	l1
16bLL]	.
16g#JJ	1ng f
4g#	fE
16g#LL	Er i
16g#JJ	iz-
=122	=122
16dd#LL	-m0P
32dd#L	0r-F
32cc#J	r dh
16.cc#	dh&
32cc#JJk	& n
16cc#LL	na
16cc#J	a k
[8bJ	k&
16bLL]	.
16g#J	&n
[8g#J	tA
16.g#LL]	.
32g#JJk	Ak-
8r	.
=123	=123
16.g#LL	-we
32g#K	e n
16.a#	na
32a#JJk	a mP
24bKL	muP
12b	u pP
16cc#Jk	pxF
64r	.
32.cc#	x gF
[8dd#L	geF
32dd#LL]	.
32dd#J	en-F
16dd#JJ	ns-
8dd#'L	st-
8a#J	-dhEP
=124	=124
16bLL	Ee
16bJ	e kP
8bJ	kOP
24bLL	Oi
24b	i nP
24b	n dh
16bJJ	dhuP
64r	.
32.a#	u mP
[4a#	mEP
32a#KLL]	.
16.a#JJ	3-P
8r	.
==	==
*-	*-
